marketing-site/src/images/logo-symbol.svg

<?xml version="1.0" encoding="UTF-8" standalone="no"?>
<!-- Generator: Adobe Illustrator 23.0.2, SVG Export Plug-In . SVG Version: 6.00 Build 0)  -->

<svg
   xmlns:dc="http://purl.org/dc/elements/1.1/"
   xmlns:cc="http://creativecommons.org/ns#"
   xmlns:rdf="http://www.w3.org/1999/02/22-rdf-syntax-ns#"
   xmlns:svg="http://www.w3.org/2000/svg"
   xmlns="http://www.w3.org/2000/svg"
   xmlns:sodipodi="http://sodipodi.sourceforge.net/DTD/sodipodi-0.dtd"
   xmlns:inkscape="http://www.inkscape.org/namespaces/inkscape"
   version="1.1"
   x="0px"
   y="0px"
   viewBox="0 0 75.320001 76.900003"
   xml:space="preserve"
   id="svg11"
   sodipodi:docname="logo-symbol.svg"
   width="75.32"
   height="76.900002"
   inkscape:version="0.92.4 (5da689c313, 2019-01-14)"><metadata
   id="metadata17"><rdf:RDF><cc:Work
       rdf:about=""><dc:format>image/svg+xml</dc:format><dc:type
         rdf:resource="http://purl.org/dc/dcmitype/StillImage" /><dc:title></dc:title></cc:Work></rdf:RDF></metadata><defs
   id="defs15" /><sodipodi:namedview
   pagecolor="#ffffff"
   bordercolor="#666666"
   borderopacity="1"
   objecttolerance="10"
   gridtolerance="10"
   guidetolerance="10"
   inkscape:pageopacity="0"
   inkscape:pageshadow="2"
   inkscape:window-width="2560"
   inkscape:window-height="1417"
   id="namedview13"
   showgrid="false"
   fit-margin-top="0"
   fit-margin-left="0"
   fit-margin-right="0"
   fit-margin-bottom="0"
   inkscape:zoom="1.8501098"
   inkscape:cx="37.659999"
   inkscape:cy="38.450001"
   inkscape:window-x="1912"
   inkscape:window-y="-8"
   inkscape:window-maximized="1"
   inkscape:current-layer="svg11" />
<style
   type="text/css"
   id="style2">
	.st0{fill:#FFFFFF;}
	.st1{fill:none;}
	.st2{fill:#6759FF;}
</style>
<g
   id="bg"
   transform="translate(-26.12,-25.33)">
	<rect
   class="st1"
   width="127.56"
   height="127.56"
   id="rect4"
   x="0"
   y="0"
   style="fill:none" />
</g>
<g
   id="Layer_2"
   transform="translate(-26.12,-25.33)">
	<path
   class="st0"
   d="m 88.32,37.43 c -1.28,0 -2.32,-1.04 -2.32,-2.32 0,-1.28 1.04,-2.32 2.32,-2.32 1.28,0 2.32,1.04 2.32,2.32 0,1.28 -1.04,2.32 -2.32,2.32 z m -2.6,0.81 c 0,-1.25 -1.01,-2.26 -2.26,-2.26 -1.25,0 -2.26,1.01 -2.26,2.26 0,1.25 1.01,2.26 2.26,2.26 1.25,0 2.26,-1.01 2.26,-2.26 z m -5.4,2.15 c 0,-1.23 -1,-2.23 -2.23,-2.23 -1.23,0 -2.23,1 -2.23,2.23 0,1.23 1,2.23 2.23,2.23 1.23,0.01 2.23,-0.99 2.23,-2.23 z m -5.65,1.36 c 0,-1.22 -0.99,-2.21 -2.21,-2.21 -1.22,0 -2.21,0.99 -2.21,2.21 0,1.22 0.99,2.21 2.21,2.21 1.22,0 2.21,-0.99 2.21,-2.21 z M 68.9,42.4 c 0,-1.21 -0.98,-2.19 -2.19,-2.19 -1.21,0 -2.19,0.98 -2.19,2.19 0,1.21 0.98,2.19 2.19,2.19 1.2,0.01 2.19,-0.98 2.19,-2.19 z m -5.8,0.02 c 0,-1.21 -0.98,-2.19 -2.19,-2.19 -1.21,0 -2.19,0.98 -2.19,2.19 0,1.21 0.98,2.19 2.19,2.19 1.21,0 2.19,-0.98 2.19,-2.19 z M 57.37,41.8 c 0,-1.22 -0.99,-2.21 -2.21,-2.21 -1.22,0 -2.21,0.99 -2.21,2.21 0,1.22 0.99,2.21 2.21,2.21 1.22,0 2.21,-0.99 2.21,-2.21 z m -5.62,-1.32 c 0,-1.23 -1,-2.23 -2.23,-2.23 -1.23,0 -2.23,1 -2.23,2.23 0,1.23 1,2.23 2.23,2.23 1.23,0 2.23,-1 2.23,-2.23 z m -5.36,-2.12 c 0,-1.25 -1.01,-2.26 -2.26,-2.26 -1.25,0 -2.26,1.01 -2.26,2.26 0,1.25 1.01,2.26 2.26,2.26 1.25,0 2.26,-1.01 2.26,-2.26 z m -4.83,-3.11 c 0,-1.28 -1.04,-2.32 -2.32,-2.32 -1.28,0 -2.32,1.04 -2.32,2.32 0,1.28 1.04,2.32 2.32,2.32 1.28,0 2.32,-1.04 2.32,-2.32 z m -1.67,58.17 c 3.03,-2.71 10.45,-7.39 23.89,-7.53 13.44,0.14 20.86,4.82 23.89,7.53 l 2.77,-3.28 C 87.98,88.07 79.04,82.27 63.78,82.31 48.51,82.27 39.58,88.07 37.12,90.14 Z m 61.55,-31.78 c 0,0 -18.83,0.36 -37.66,0.36 -18.83,0 -37.66,-0.36 -37.66,-0.36 v 4.29 c 0,0 18.83,-0.36 37.66,-0.36 18.83,0 37.66,0.36 37.66,0.36 z m -72.06,18.6 c 2.78,-0.75 14.65,-4.18 34.4,-4.29 19.75,0.12 31.62,3.55 34.4,4.3 l 1.04,-4.17 C 96.3,75.42 82.18,72.29 63.78,72.37 45.38,72.29 31.26,75.41 28.34,76.08 Z m 23.98,21.99 c 1.15,-1.87 4.38,-6.29 10.42,-6.39 6.03,0.09 9.27,4.52 10.42,6.39 l 3.5,-2.49 C 76.03,97.66 71.33,92.17 63.78,92.26 56.23,92.17 51.53,97.66 49.86,99.74 Z M 32.49,48.85 c 0,-1.45 -1.18,-2.63 -2.63,-2.63 -1.45,0 -2.63,1.18 -2.63,2.63 0,1.45 1.18,2.63 2.63,2.63 1.45,0 2.63,-1.18 2.63,-2.63 z m 6.58,1.41 c 0,-1.39 -1.13,-2.52 -2.52,-2.52 -1.39,0 -2.52,1.13 -2.52,2.52 0,1.39 1.13,2.52 2.52,2.52 1.39,0 2.52,-1.13 2.52,-2.52 z m 6.69,1.05 c 0,-1.35 -1.1,-2.45 -2.45,-2.45 -1.35,0 -2.45,1.1 -2.45,2.45 0,1.35 1.1,2.45 2.45,2.45 1.35,0 2.45,-1.1 2.45,-2.45 z m 6.75,0.72 c 0,-1.33 -1.07,-2.4 -2.4,-2.4 -1.33,0 -2.4,1.07 -2.4,2.4 0,1.33 1.07,2.4 2.4,2.4 1.33,0 2.4,-1.08 2.4,-2.4 z m 6.81,0.41 c 0,-1.32 -1.07,-2.38 -2.38,-2.38 -1.32,0 -2.38,1.07 -2.38,2.38 0,1.32 1.07,2.38 2.38,2.38 1.31,0 2.38,-1.06 2.38,-2.38 z m 6.81,0.13 c 0,-1.3 -1.06,-2.36 -2.36,-2.36 -1.3,0 -2.36,1.06 -2.36,2.36 0,1.3 1.06,2.36 2.36,2.36 1.3,0 2.36,-1.06 2.36,-2.36 z m 6.86,-0.13 c 0,-1.32 -1.07,-2.38 -2.38,-2.38 -1.32,0 -2.38,1.07 -2.38,2.38 0,1.31 1.07,2.38 2.38,2.38 1.32,0 2.38,-1.06 2.38,-2.38 z m 6.85,-0.41 c 0,-1.33 -1.07,-2.4 -2.4,-2.4 -1.33,0 -2.4,1.07 -2.4,2.4 0,1.33 1.07,2.4 2.4,2.4 1.32,0 2.4,-1.08 2.4,-2.4 z m 6.85,-0.72 c 0,-1.35 -1.1,-2.45 -2.45,-2.45 -1.35,0 -2.45,1.1 -2.45,2.45 0,1.35 1.1,2.45 2.45,2.45 1.35,0 2.45,-1.1 2.45,-2.45 z m 6.83,-1.05 c 0,-1.39 -1.13,-2.52 -2.52,-2.52 -1.39,0 -2.52,1.13 -2.52,2.52 0,1.39 1.13,2.52 2.52,2.52 1.39,0 2.52,-1.13 2.52,-2.52 z m 6.8,-1.41 c 0,-1.45 -1.18,-2.63 -2.63,-2.63 -1.45,0 -2.63,1.18 -2.63,2.63 0,1.45 1.18,2.63 2.63,2.63 1.46,0 2.63,-1.18 2.63,-2.63 z M 55.6,27.55 c 0,-1.23 -0.99,-2.22 -2.22,-2.22 -1.23,0 -2.22,0.99 -2.22,2.22 0,1.23 0.99,2.22 2.22,2.22 1.23,0 2.22,-0.99 2.22,-2.22 z m 4.63,3.46 c 0,-1.17 -0.95,-2.12 -2.12,-2.12 -1.17,0 -2.12,0.95 -2.12,2.12 0,1.17 0.95,2.12 2.12,2.12 1.17,0 2.12,-0.95 2.12,-2.12 z m 5.63,1.42 c 0,-1.15 -0.93,-2.08 -2.08,-2.08 -1.15,0 -2.08,0.93 -2.08,2.08 0,1.15 0.93,2.08 2.08,2.08 1.15,0 2.08,-0.93 2.08,-2.08 z m 5.7,-1.42 c 0,-1.17 -0.95,-2.12 -2.12,-2.12 -1.17,0 -2.12,0.95 -2.12,2.12 0,1.17 0.95,2.12 2.12,2.12 1.17,0 2.12,-0.95 2.12,-2.12 z m 4.84,-3.46 c 0,-1.23 -0.99,-2.22 -2.22,-2.22 -1.23,0 -2.22,0.99 -2.22,2.22 0,1.23 0.99,2.22 2.22,2.22 1.23,0 2.22,-0.99 2.22,-2.22 z"
   id="path7"
   inkscape:connector-curvature="0"
   style="fill:#ffffff" />
</g>
<g
   id="guides"
   transform="translate(-26.12,-25.33)">
</g>
</svg>

<?xml version="1.0" encoding="utf-8"?>
<!-- Generator: Adobe Illustrator 23.0.2, SVG Export Plug-In . SVG Version: 6.00 Build 0)  -->
<svg version="1.1" xmlns="http://www.w3.org/2000/svg" xmlns:xlink="http://www.w3.org/1999/xlink" x="0px" y="0px"
	 viewBox="0 0 127.56 127.56" style="enable-background:new 0 0 127.56 127.56;" xml:space="preserve">
<style type="text/css">
	.st0{fill:#FFFFFF;}
	.st1{fill:none;}
	.st2{fill:#6759FF;}
</style>
<g id="bg">
	<rect class="st1" width="127.56" height="127.56"/>
</g>
<g id="Layer_2">
	<path class="st0" d="M88.32,37.43c-1.28,0-2.32-1.04-2.32-2.32s1.04-2.32,2.32-2.32c1.28,0,2.32,1.04,2.32,2.32
		S89.6,37.43,88.32,37.43z M85.72,38.24c0-1.25-1.01-2.26-2.26-2.26c-1.25,0-2.26,1.01-2.26,2.26s1.01,2.26,2.26,2.26
		C84.71,40.5,85.72,39.49,85.72,38.24z M80.32,40.39c0-1.23-1-2.23-2.23-2.23c-1.23,0-2.23,1-2.23,2.23c0,1.23,1,2.23,2.23,2.23
		C79.32,42.63,80.32,41.63,80.32,40.39z M74.67,41.75c0-1.22-0.99-2.21-2.21-2.21c-1.22,0-2.21,0.99-2.21,2.21s0.99,2.21,2.21,2.21
		C73.68,43.96,74.67,42.97,74.67,41.75z M68.9,42.4c0-1.21-0.98-2.19-2.19-2.19c-1.21,0-2.19,0.98-2.19,2.19
		c0,1.21,0.98,2.19,2.19,2.19C67.91,44.6,68.9,43.61,68.9,42.4z M63.1,42.42c0-1.21-0.98-2.19-2.19-2.19
		c-1.21,0-2.19,0.98-2.19,2.19c0,1.21,0.98,2.19,2.19,2.19C62.12,44.61,63.1,43.63,63.1,42.42z M57.37,41.8
		c0-1.22-0.99-2.21-2.21-2.21c-1.22,0-2.21,0.99-2.21,2.21c0,1.22,0.99,2.21,2.21,2.21C56.38,44.01,57.37,43.02,57.37,41.8z
		 M51.75,40.48c0-1.23-1-2.23-2.23-2.23c-1.23,0-2.23,1-2.23,2.23c0,1.23,1,2.23,2.23,2.23C50.75,42.71,51.75,41.71,51.75,40.48z
		 M46.39,38.36c0-1.25-1.01-2.26-2.26-2.26c-1.25,0-2.26,1.01-2.26,2.26c0,1.25,1.01,2.26,2.26,2.26
		C45.38,40.62,46.39,39.61,46.39,38.36z M41.56,35.25c0-1.28-1.04-2.32-2.32-2.32c-1.28,0-2.32,1.04-2.32,2.32
		c0,1.28,1.04,2.32,2.32,2.32C40.52,37.57,41.56,36.53,41.56,35.25z M39.89,93.42c3.03-2.71,10.45-7.39,23.89-7.53
		c13.44,0.14,20.86,4.82,23.89,7.53l2.77-3.28c-2.46-2.07-11.4-7.87-26.66-7.83c-15.27-0.04-24.2,5.76-26.66,7.83L39.89,93.42z
		 M101.44,61.64c0,0-18.83,0.36-37.66,0.36c-18.83,0-37.66-0.36-37.66-0.36v4.29c0,0,18.83-0.36,37.66-0.36s37.66,0.36,37.66,0.36
		V61.64z M29.38,80.24c2.78-0.75,14.65-4.18,34.4-4.29c19.75,0.12,31.62,3.55,34.4,4.3l1.04-4.17c-2.92-0.66-17.04-3.79-35.44-3.71
		c-18.4-0.08-32.52,3.04-35.44,3.71L29.38,80.24z M53.36,102.23c1.15-1.87,4.38-6.29,10.42-6.39c6.03,0.09,9.27,4.52,10.42,6.39
		l3.5-2.49c-1.67-2.08-6.37-7.57-13.92-7.48c-7.55-0.09-12.25,5.4-13.92,7.48L53.36,102.23z M32.49,48.85
		c0-1.45-1.18-2.63-2.63-2.63c-1.45,0-2.63,1.18-2.63,2.63c0,1.45,1.18,2.63,2.63,2.63C31.31,51.48,32.49,50.3,32.49,48.85z
		 M39.07,50.26c0-1.39-1.13-2.52-2.52-2.52c-1.39,0-2.52,1.13-2.52,2.52c0,1.39,1.13,2.52,2.52,2.52
		C37.94,52.78,39.07,51.65,39.07,50.26z M45.76,51.31c0-1.35-1.1-2.45-2.45-2.45c-1.35,0-2.45,1.1-2.45,2.45
		c0,1.35,1.1,2.45,2.45,2.45C44.66,53.76,45.76,52.66,45.76,51.31z M52.51,52.03c0-1.33-1.07-2.4-2.4-2.4s-2.4,1.07-2.4,2.4
		c0,1.33,1.07,2.4,2.4,2.4S52.51,53.35,52.51,52.03z M59.32,52.44c0-1.32-1.07-2.38-2.38-2.38c-1.32,0-2.38,1.07-2.38,2.38
		c0,1.32,1.07,2.38,2.38,2.38C58.25,54.82,59.32,53.76,59.32,52.44z M66.13,52.57c0-1.3-1.06-2.36-2.36-2.36s-2.36,1.06-2.36,2.36
		s1.06,2.36,2.36,2.36S66.13,53.87,66.13,52.57z M72.99,52.44c0-1.32-1.07-2.38-2.38-2.38c-1.32,0-2.38,1.07-2.38,2.38
		s1.07,2.38,2.38,2.38C71.93,54.82,72.99,53.76,72.99,52.44z M79.84,52.03c0-1.33-1.07-2.4-2.4-2.4c-1.33,0-2.4,1.07-2.4,2.4
		c0,1.33,1.07,2.4,2.4,2.4C78.76,54.43,79.84,53.35,79.84,52.03z M86.69,51.31c0-1.35-1.1-2.45-2.45-2.45
		c-1.35,0-2.45,1.1-2.45,2.45c0,1.35,1.1,2.45,2.45,2.45C85.59,53.76,86.69,52.66,86.69,51.31z M93.52,50.26
		c0-1.39-1.13-2.52-2.52-2.52c-1.39,0-2.52,1.13-2.52,2.52c0,1.39,1.13,2.52,2.52,2.52C92.39,52.78,93.52,51.65,93.52,50.26z
		 M100.32,48.85c0-1.45-1.18-2.63-2.63-2.63c-1.45,0-2.63,1.18-2.63,2.63c0,1.45,1.18,2.63,2.63,2.63
		C99.15,51.48,100.32,50.3,100.32,48.85z M55.6,27.55c0-1.23-0.99-2.22-2.22-2.22s-2.22,0.99-2.22,2.22c0,1.23,0.99,2.22,2.22,2.22
		S55.6,28.78,55.6,27.55z M60.23,31.01c0-1.17-0.95-2.12-2.12-2.12c-1.17,0-2.12,0.95-2.12,2.12c0,1.17,0.95,2.12,2.12,2.12
		C59.28,33.13,60.23,32.18,60.23,31.01z M65.86,32.43c0-1.15-0.93-2.08-2.08-2.08s-2.08,0.93-2.08,2.08s0.93,2.08,2.08,2.08
		S65.86,33.58,65.86,32.43z M71.56,31.01c0-1.17-0.95-2.12-2.12-2.12s-2.12,0.95-2.12,2.12c0,1.17,0.95,2.12,2.12,2.12
		S71.56,32.18,71.56,31.01z M76.4,27.55c0-1.23-0.99-2.22-2.22-2.22s-2.22,0.99-2.22,2.22c0,1.23,0.99,2.22,2.22,2.22
		S76.4,28.78,76.4,27.55z"/>
</g>
<g id="guides">
</g>
</svg>
